src/assets/images/landing/thirdPartyLogos/discord_logo_purple.svg

<svg width="54" height="40" viewBox="0 0 54 40" fill="none" xmlns="http://www.w3.org/2000/svg">
<path d="M44.972 3.34994C41.5058 1.76422 37.8445 0.635118 34.0836 0C33.5689 0.921544 33.104 1.868 32.6889 2.8352C28.683 2.23329 24.6108 2.23329 20.605 2.8352C20.1899 1.868 19.725 0.921544 19.2102 0C15.4493 0.64342 11.7839 1.77252 8.31359 3.35824C1.42276 13.5533 -0.44523 23.4952 0.488768 33.296C4.52364 36.2765 9.04003 38.5471 13.8429 40C14.9221 38.5471 15.881 37.0029 16.703 35.3881C15.1422 34.807 13.6353 34.0847 12.199 33.2379C12.5768 32.9639 12.9462 32.6816 13.3032 32.4076C21.759 36.3844 31.5473 36.3844 40.0031 32.4076C40.3642 32.7024 40.7337 32.9846 41.1073 33.2379C39.671 34.0888 38.16 34.807 36.595 35.3923C37.417 37.0071 38.3717 38.5471 39.4551 40C44.2621 38.5513 48.7827 36.2848 52.8175 33.3001C53.9134 21.9344 50.9454 12.0839 44.972 3.34994ZM17.886 27.2686C15.2833 27.2686 13.133 24.9066 13.133 22.0008C13.133 19.0951 15.2086 16.7123 17.8777 16.7123C20.5469 16.7123 22.6805 19.0951 22.6349 22.0008C22.5892 24.9066 20.5386 27.2686 17.886 27.2686ZM35.4203 27.2686C32.8134 27.2686 30.6714 24.9066 30.6714 22.0008C30.6714 19.0951 32.747 16.7123 35.4203 16.7123C38.0936 16.7123 40.2106 19.0951 40.165 22.0008C40.1193 24.9066 38.0728 27.2686 35.4203 27.2686Z" fill="#8773A8"/>
</svg>

<svg xmlns="http://www.w3.org/2000/svg" width="54" height="40" fill="none"><path fill="#8773A8" d="M44.972 3.35A43.7 43.7 0 0 0 34.084 0q-.773 1.384-1.395 2.835a40.7 40.7 0 0 0-12.084 0A30 30 0 0 0 19.21 0 44.1 44.1 0 0 0 8.314 3.358C1.423 13.553-.446 23.495.489 33.296A43.9 43.9 0 0 0 13.843 40a32.4 32.4 0 0 0 2.86-4.612 28.4 28.4 0 0 1-4.504-2.15c.378-.274.747-.556 1.104-.83a31.37 31.37 0 0 0 26.7 0c.361.294.73.577 1.104.83a28.3 28.3 0 0 1-4.512 2.154A32 32 0 0 0 39.455 40a43.7 43.7 0 0 0 13.363-6.7c1.095-11.366-1.873-21.216-7.846-29.95M17.886 27.269c-2.603 0-4.753-2.362-4.753-5.268s2.076-5.289 4.745-5.289 4.802 2.383 4.757 5.289c-.046 2.906-2.096 5.268-4.749 5.268m17.534 0c-2.607 0-4.749-2.362-4.749-5.268s2.076-5.289 4.75-5.289 4.79 2.383 4.744 5.289-2.092 5.268-4.745 5.268"/></svg>
